tetrification/src/assets/images/flags/usa.svg

<svg width="94" height="59" viewBox="0 0 94 59" fill="none" xmlns="http://www.w3.org/2000/svg">
<rect width="94" height="58.1091" rx="5.5" fill="white"/>
<path d="M0 49.5645H94V52.6099C94 55.6475 91.5376 58.1099 88.5 58.1099H5.5C2.46244 58.1099 0 55.6475 0 52.6099V49.5645Z" fill="#EE5151"/>
<rect y="35.8906" width="94" height="8.54545" fill="#EE5151"/>
<rect y="22.2188" width="94" height="8.54545" fill="#EE5151"/>
<rect y="8.54492" width="94" height="8.54545" fill="#EE5151"/>
<path d="M3.41413 1.5964C4.44438 0.573832 5.83709 0 7.28865 0H87.8576C89.4233 0 90.9147 0.667248 91.9581 1.83451L93 3H2L3.41413 1.5964Z" fill="#EE5151"/>
<path d="M0 5.5C0 2.46244 2.46243 0 5.5 0H56.4V30.7636H0V5.5Z" fill="#384285"/>
</svg>

<svg xmlns="http://www.w3.org/2000/svg" width="94" height="59" fill="none"><rect width="94" height="58.109" fill="#fff" rx="5.5"/><path fill="#EE5151" d="M0 49.565h94v3.045a5.5 5.5 0 0 1-5.5 5.5h-83a5.5 5.5 0 0 1-5.5-5.5v-3.045ZM0 35.891h94v8.545H0zM0 22.219h94v8.545H0zM0 8.545h94v8.545H0zM3.414 1.596A5.5 5.5 0 0 1 7.29 0h80.569a5.5 5.5 0 0 1 4.1 1.835L93 3H2l1.414-1.404Z"/><path fill="#384285" d="M0 5.5A5.5 5.5 0 0 1 5.5 0h50.9v30.764H0V5.5Z"/></svg>
